X:1
T:September Song
T:Maxwell Anderson
T:Kurt Weill Arr. G.C. Wilkinson 
T:September Song SATB 
C:Kurt Weill
Z:Maxwell Anderson
%%score [ 1 2 3 4 ]
L:1/8
M:4/4
K:Bb
V:1 treble nm="Soprano" snm="S."
V:2 treble nm="Alto" snm="A."
V:3 treble-8 nm="Tenor" snm="T."
V:4 bass nm="Bass" snm="B."
V:1
!p! z2"_con espressione" B,2 D2 A2 | G2 G2 G4 | z2 B,2 (3B,2 _D2 _G2 | F3 F- F4 | %4
w: Oh, it's a|long, long while|From May to De-|cem- ber, _|
 z2!<(! DD F2 B2!<)! | c8- | c2!>(! C2 (3C2 B,2 C2!>)! | D3 D- D4 | z2 B,B, D2 A2 | G3 G- G4 | %10
w: But the days grow|short|_ When you reach Sep-|tem ber. _|When the au- tumn|wea- ther _|
 z2 B,B, _D2 _G2 | F8 | z2!<(! D2 FF B2!<)! | c8- | c2 CD E2 E2 | D8 |!mp! z4 B2 B2 | c2 BA B4- | %18
w: turns the leaves to|flame,|One has- n't got|time|_ for the wait- ing|game.|Oh, the|days dwin- dle down|
 B4 B2 B2 | _d3 B B4- |"_cresc." B4 z2 z B | c4 B4 | z4 z2 z B |!f!!<(! _d4 !fermata!B4!<)! | %24
w: _ to a|pre- cious few,|_ Sep-|tem- ber,|No-|vem- ber!|
!p! z2 B,2 =D2 A2 | G3 G G4 | z2 B,2 _D2 _G2 | F8 | z2!<(! D2 E2 B2!<)! | c6!mf! G2 | %30
w: And these few|pre- cious days|I'll spend with|you,|These pre- cious|days I'll|
 B4"_poco rit." B4 |1"_a tempo" B8 ||1 z4 z2"^(Back to Verse)" B,B, :|2"_rit." B8- || B6 z2 |] %35
w: spend with|you.|When you|you|_|
V:2
!p! z2"_con espressione" B,2 B,2 D2 | _D2 _D2 _D4 | z2 B,2 (3B,2 _D2 _D2 | D3 D- D4 | %4
w: Oh, it's a|long, long while|From May to De-|cem- ber, _|
 z2!<(! B,B, D2 F2!<)! | =E8- | E2!>(! B,2 (3G,2 G,2 A,2!>)! | B,3 B,- B,4 | z2 B,B, B,2 D2 | %9
w: But the days grow|short|_ When you reach Sep-|tem ber. _|When the au- tumn|
 _D3 D- D4 | z2 B,B, _D2 D2 | D8 | z2!<(! D2 DD F2!<)! | B8- | B2 B,B, B,2 A,2 | B,8 | %16
w: wea- ther _|turns the leaves to|flame,|One has- n't got|time|_ for the wait- ing|game.|
!mp! z4 F2 F2 | _G2 GG G4 | G4 _G2 G2 | =G3 G G4- |"_cresc." G4 z2 z G | _G4 G4 | z4 z2 z _G | %23
w: Oh, the|days dwin- dle down|_ to a|pre- cious few,|_ Sep-|tem- ber,|No-|
!f!!<(! =G4 !fermata!G4!<)! |!p! z2 B,2 D2 F2 | D3 D D4 | z2 B,2 _D2 D2 | =D8 | %28
w: vem- ber!|And these few|pre- cious days|I'll spend with|you,|
 z2!<(! B,2 D2 F2!<)! | B6!mf! =E2 | _G4 G4 |1"_a tempo" G8 ||1 z8 :|2 G8 || F6 z2 |] %35
w: These pre- cious|days I'll|spend with|you.||you.|_|
V:3
!p! z2 B2 B2 B2 | B2 B2 B4 | z2 B2 (3B2 B2 B2 | G3 F- F4 | z2!<(! FF B2 d2!<)! | B8- | %6
w: Oh, it's a|long, long while|From May to De-|cem- ber, _|But the days grow|short|
 B2!>(! E2 (3E2 G2 A2!>)! | G3 F- F4 | z2 FF B2 B2 | F3 F- F4 | z2 _GG G2 G2 | G8 | %12
w: _ When you reach Sep-|tem ber. _|When the au- tumn|wea- ther _|turns the leaves to|flame,|
 z2!<(! B,2 B,B, D2!<)! | =E8- | E2 =EE _G2 _E2 | F8 |!mp! z4 F2 G2 | E2 EE E4 | E4 E2 E2 | %19
w: One has- n't got|time|_ for the wait- ing|game.|Oh, the|days dwin- dle down|_ to a|
 B3 _d _d4 |"_cresc." _d4 z2 z _d | B4 c4 | z4 z2 z c |!f!!<(!!<(! B4 !fermata!_d4!<)!!<)! | %24
w: pre- cious few,|_ Sep-|tem- ber,|No-|vem- ber!|
!p! z2 F2 B2 d2 | B3 B B4 | z2 _G2 G2 G2 | F8 | z2!<(! F2 B2 d2!<)! | =e6!mf! B2 | %30
w: And these few|pre- cious days|I'll spend with|you,|These pre- cious|days I'll|
 c4"_poco rit." c4 |1 d8 ||1 z8 :|2"_rit." d8- || d6 z2 |] %35
w: spend with|you.||you.|_|
V:4
!p! z2 B,2 A,2 G,2 | F,2 F,2 F,4 | z2 _G,2 (3G,2 F,2 E,2 | B,,3 B,,- B,,4 | %4
w: Oh, it's a|long, long while|From May to De-|cem- ber, _|
 z2!<(! B,,B,, A,,2 _A,,2!<)! | G,,8- | G,,2!>(! _G,,2 (3F,,2 F,,2 F,,2!>)! | B,,3 B,,- B,,4 | %8
w: But the days grow|short|_ When you reach Sep-|tem ber. _|
 z2 D,D, F,2 F,2 | B,,3 B,,- B,,4 | z2 _G,G, F,2 _G,2 | B,,8 | z2!<(! B,,2 A,,A,, _A,,2!<)! | %13
w: When the au- tumn|wea- ther _|turns the leaves to|flame,|One has- n't got|
 G,,8- | G,,2 G,,G,, F,,2 F,,2 | B,,8 |!mp! z4 D,2 D,2 | E,2 E,E, _G,4 | C4 B,2 B,2 | %19
w: time|_ for the wait- ing|game.|Oh, the|days dwin- dle down|_ to a|
 =E,3 E, E,4- |"_cresc." E,4 z2 z =E, | _E,4 E,4 | z4 z2 z E, |!f!!<(! =E,4 !fermata!E,4!<)! | %24
w: pre- cious few,|_ Sep-|tem- ber,|No-|vem- ber!|
!p! z2 =D,2 F,2 B,2 | B,,3 B,, B,,4 | z2 B,,2 B,,2 B,,2 | B,,8 | z2!<(! B,,2 A,,2 _A,,2!<)! | %29
w: And these few|pre- cious days|I'll spend with|you,|These pre- cious|
 G,,6!mf! C,2 | [_E,,E,]4 [E,,E,]4 |1 B,,8 ||1 z8 :|2 B,,8- || B,,6 z2 |] %35
w: days I'll|spend with|you.||you|_|

